X:105
T: Orange and Green
T: Glas agus Bu\'i
S: B.Breathnach: "Ceol Rince na hEireann" II/25
Z: B.Black
L: 1/8
M: 6/8
R: jig
K: G
e|dBG AGE|EDE G2G|GBA ABd|edB d2e|
dBG AGE|EDE G2G|GBA AGA|1 BGG g2 :|2\
BGG G2||
A|Bdd dBA|Bdd d2A|Bee ede|fee ede|
fg/a/f efe|dBA d2e|dBG AGA|1 BGG G2 :|2\
BGG g2||

